X:1
T: Talimod
C:Bruce Shawyer
R:Reel
Q:232
K:G
M:4/4
L:1/8
D2|:"G"G2GF GABc|d^cde dBgB|"Am"c2A2 ABAG|"D7"ABcA GFED|
"G"G2GF GABc|d^cde dBgB|"Am"c2A2 ABAG|1"D7"FGAF "G"G2(3DEF:|2"D7"FGAF "G"G2z2|
|:"Em"B2e2 e3f|Bege Bege|"D"A2d2 d3e|fgfe d2f2|
"Em"B2e2 e3f|Bege Bege|"B"B2Bc BAGF|1"Em"E2E2 EFGA:|2"Em"E6||
